X:1
T:The Patriotic Diggers
M:2/4
L:1/8
K:G
 GG GG| G4| GG FE| E D3| AA AA| A4| AA GF| G D3| BB BB| B4| BB AG|\
 F A3| AA AA| A4| AG FE| D G3| G/2 G3/2 G/2 G3/2| G4| GG FE| F A3|\
 A/2 A3/2 AA| A4| dd c3/2 A/2| A G3|
